icons_vscode/pnpm.svg

<svg xmlns="http://www.w3.org/2000/svg" xmlns:xlink="http://www.w3.org/1999/xlink" width="160.01" height="160" viewBox="76.59 44 164.008 164"><defs><path id="a" d="M237.6 95h-50V45h50z"/><path id="b" d="M182.59 95h-50V45h50z"/><path id="c" d="M127.59 95h-50V45h50z"/><path id="d" d="M237.6 150h-50v-50h50z"/><path id="e" d="M182.59 150h-50v-50h50z"/><path id="f" d="M182.59 205h-50v-50h50z"/><path id="g" d="M237.6 205h-50v-50h50z"/><path id="h" d="M127.59 205h-50v-50h50z"/></defs><use xlink:href="#a" fill="#f9ad00"/><use xlink:href="#b" fill="#f9ad00"/><use xlink:href="#c" fill="#f9ad00"/><use xlink:href="#d" fill="#f9ad00"/><use xlink:href="#e" fill="#4e4e4e"/><use xlink:href="#f" fill="#4e4e4e"/><use xlink:href="#g" fill="#4e4e4e"/><use xlink:href="#h" fill="#4e4e4e"/></svg>

<?xml version="1.0" encoding="UTF-8" standalone="no"?>
<!DOCTYPE svg PUBLIC "-//W3C//DTD SVG 1.1//EN" "http://www.w3.org/Graphics/SVG/1.1/DTD/svg11.dtd">
<svg version="1.1" xmlns="http://www.w3.org/2000/svg" xmlns:xlink="http://www.w3.org/1999/xlink" preserveAspectRatio="xMidYMid meet" viewBox="76.58987244897958 44 164.00775510204068 164" width="160.01" height="160"><defs><path d="M237.6 95L187.6 95L187.6 45L237.6 45L237.6 95Z" id="arNRoK435"></path><path d="M182.59 95L132.59 95L132.59 45L182.59 45L182.59 95Z" id="a3H2WU7Px"></path><path d="M127.59 95L77.59 95L77.59 45L127.59 45L127.59 95Z" id="b1DInM56vl"></path><path d="M237.6 150L187.6 150L187.6 100L237.6 100L237.6 150Z" id="a7LFlgQIwu"></path><path d="M182.59 150L132.59 150L132.59 100L182.59 100L182.59 150Z" id="amwLiZcuo"></path><path d="M182.59 205L132.59 205L132.59 155L182.59 155L182.59 205Z" id="f3Peu5RWan"></path><path d="M237.6 205L187.6 205L187.6 155L237.6 155L237.6 205Z" id="a6DXBfqPa"></path><path d="M127.59 205L77.59 205L77.59 155L127.59 155L127.59 205Z" id="c1GWSTH1z7"></path></defs><g><g><use xlink:href="#arNRoK435" opacity="1" fill="#f9ad00" fill-opacity="1"></use></g><g><use xlink:href="#a3H2WU7Px" opacity="1" fill="#f9ad00" fill-opacity="1"></use></g><g><use xlink:href="#b1DInM56vl" opacity="1" fill="#f9ad00" fill-opacity="1"></use></g><g><use xlink:href="#a7LFlgQIwu" opacity="1" fill="#f9ad00" fill-opacity="1"></use></g><g><use xlink:href="#amwLiZcuo" opacity="1" fill="#4e4e4e" fill-opacity="1"></use></g><g><use xlink:href="#f3Peu5RWan" opacity="1" fill="#4e4e4e" fill-opacity="1"></use></g><g><use xlink:href="#a6DXBfqPa" opacity="1" fill="#4e4e4e" fill-opacity="1"></use></g><g><use xlink:href="#c1GWSTH1z7" opacity="1" fill="#4e4e4e" fill-opacity="1"></use></g></g></svg>
